X:8621
T:A Man's a Man for A' That
C:anon.
O:England
F:http://abc.musicaviva.com/tunes/england/a-mans-a-man-phil.abc
%Posted at abcusers July 21th 2002 by Phil Taylor
G:song in march tempo taken from a pipe arrangement
M:2/4
L:1/8
K:D
A|d>e dA|Bd e>g|f>e dA|B2 B>A|
  d>e dA|Bd e>g|f>e dB|A2 A :|
g|f>g af|gf e>g|f>g aA|B2 B>d|
  f>g af|gf e>g|f>e dB|A2 A :|
W:
W:
W:  From Musica Viva - http://www.musicaviva.com
W:  the Internet center for free sheet music downloads.
